resources/svg/bike-line.svg

<svg fill="currentColor" viewBox="0 0 24 24" xmlns="http://www.w3.org/2000/svg"><path d="M5.5 12.0002H4V7.00025H2V5.00025H8V7.00025H6V9.79572L15.8131 7.16632L15.2327 5.00025H12V3.00025H15.9784C16.4286 2.99018 16.8442 3.28718 16.9659 3.74143L18.5188 9.53698L16.587 10.0546L16.3307 9.09817L5.5 12.0002ZM5 19.0002C6.10457 19.0002 7 18.1048 7 17.0002C7 15.8957 6.10457 15.0002 5 15.0002C3.89543 15.0002 3 15.8957 3 17.0002C3 18.1048 3.89543 19.0002 5 19.0002ZM5 21.0002C2.79086 21.0002 1 19.2094 1 17.0002C1 14.7911 2.79086 13.0002 5 13.0002C7.20914 13.0002 9 14.7911 9 17.0002C9 19.2094 7.20914 21.0002 5 21.0002ZM18 19.0002C19.6569 19.0002 21 17.6571 21 16.0002C21 14.3434 19.6569 13.0002 18 13.0002C16.3431 13.0002 15 14.3434 15 16.0002C15 17.6571 16.3431 19.0002 18 19.0002ZM18 21.0002C15.2386 21.0002 13 18.7617 13 16.0002C13 13.2388 15.2386 11.0002 18 11.0002C20.7614 11.0002 23 13.2388 23 16.0002C23 18.7617 20.7614 21.0002 18 21.0002Z"/></svg>

<svg xmlns="http://www.w3.org/2000/svg" viewBox="0 0 24 24" fill="currentColor">
    <g>
        <path fill="none" d="M0 0h24v24H0z"/>
        <path d="M5.5 12H4V7H2V5h6v2H6v2.795l9.813-2.629L15.233 5H12V3h3.978a1 1 0 0 1 .988.741l1.553 5.796-1.932.517-.256-.956L5.5 12zM5 19a2 2 0 1 0 0-4 2 2 0 0 0 0 4zm0 2a4 4 0 1 1 0-8 4 4 0 0 1 0 8zm13-2a3 3 0 1 0 0-6 3 3 0 0 0 0 6zm0 2a5 5 0 1 1 0-10 5 5 0 0 1 0 10z"/>
    </g>
</svg>
